pictures/modern-tools-logo.svg

<svg height="192" viewBox="0 0 192 192" width="192" xmlns="http://www.w3.org/2000/svg" xmlns:xlink="http://www.w3.org/1999/xlink"><defs><rect id="a" height="152" rx="12" width="152"/><radialGradient id="b" cx="14.94%" cy="13.64%" r="100.42%"><stop offset="0" stop-color="#fff" stop-opacity=".12"/><stop offset="1" stop-color="#fff" stop-opacity="0"/></radialGradient><radialGradient id="c" cx="-.17%" cy=".1%" r="136.32%"><stop offset="0" stop-color="#1a237e" stop-opacity=".2"/><stop offset="1" stop-color="#1a237e" stop-opacity="0"/></radialGradient><radialGradient id="d" cx="85.08%" cy="13.4%" r="153.65%"><stop offset="0" stop-color="#1a237e" stop-opacity=".12"/><stop offset="1" stop-color="#1a237e" stop-opacity="0"/></radialGradient><radialGradient id="e" cx="41.34%" cy="0%" r="56.54%"><stop offset="0" stop-color="#1a237e" stop-opacity=".15"/><stop offset="1" stop-color="#1a237e" stop-opacity="0"/></radialGradient><path id="f" d="m76 136c33.14 0 60-26.86 60-60s-26.86-60-60-60-60 26.86-60 60 26.86 60 60 60z"/><mask id="g" fill="#fff" height="120" width="120" x="0" y="0"><use xlink:href="#f"/></mask><circle id="h" cx="76" cy="76" r="28"/><mask id="i" fill="#fff" height="56" width="56" x="0" y="0"><use xlink:href="#h"/></mask><circle id="j" cx="76" cy="76" r="20"/><mask id="k" fill="#fff" height="40" width="40" x="0" y="0"><use xlink:href="#j"/></mask><mask id="l" fill="#fff"><use fill="#fff" fill-rule="evenodd" xlink:href="#a"/></mask></defs><g fill="none" fill-rule="evenodd" transform="translate(20 20)"><use fill="#2879ff" xlink:href="#a"/><g mask="url(#l)" stroke="#fff" stroke-opacity=".2" stroke-width=".5" transform="translate(-20 -20)"><path d="m0 0 192 192m0-192-192 192m123.75-192v192m-55.5-192v192m123.75-68.25h-192m192-55.5h-192"/><circle cx="96" cy="96" r="39"/><path d="m0 96h192m-96-96v192"/></g><circle cx="76" cy="76" fill="url(#b)" r="60"/><path d="m140 0h-128c-6.6 0-12 5.4-12 12v1c0-6.6 5.4-12 12-12h128c6.6 0 12 5.4 12 12v-1c0-6.6-5.4-12-12-12z" fill="#fff" opacity=".2"/><path d="m140 151h-128c-6.6 0-12-5.4-12-12v1c0 6.6 5.4 12 12 12h128c6.6 0 12-5.4 12-12v-1c0 6.6-5.4 12-12 12z" fill="#000" opacity=".1"/><path d="m49.5 67.48-24.5-24.48 26.72 45.83c-2.2-3.94-3.44-8.47-3.44-13.3 0-2.8.42-5.5 1.2-8.05z" fill="url(#c)"/><path d="m81.97 103-8.97 33.46 26.56-46.46c-3.75 6.48-10.08 11.28-17.6 13z" fill="url(#d)"/><path d="m96.1 57.43 33.42-8.93h-53.66c-15.12 0-27.37 12.25-27.37 27.37s12.25 27.37 27.37 27.37 27.37-12.25 27.37-27.37c0-7.1-2.7-13.57-7.14-18.44z" fill="url(#e)"/><g stroke="#fff" stroke-width="4"><use mask="url(#g)" xlink:href="#f"/><use mask="url(#i)" xlink:href="#h"/><use mask="url(#k)" xlink:href="#j"/></g><path d="m76 48h53v2h-53zm24.25 42-26.5 45.9-1.73-1 26.5-45.9zm-48.5 0-26.5-45.9 1.73-1 26.5 45.9z" fill="#fff"/></g></svg>

<svg width="192" height="192" viewBox="0 0 192 192" xmlns="http://www.w3.org/2000/svg" xmlns:xlink="http://www.w3.org/1999/xlink"><title>Master</title><defs><rect id="d" width="152" height="152" rx="12"/><radialGradient cx="14.94%" cy="13.64%" fx="14.94%" fy="13.64%" r="100.42%" id="f"><stop stop-color="#FFF" stop-opacity=".12" offset="0%"/><stop stop-color="#FFF" stop-opacity="0" offset="100%"/></radialGradient><radialGradient cx="-.17%" cy=".1%" fx="-.17%" fy=".1%" r="136.32%" id="g"><stop stop-color="#1A237E" stop-opacity=".2" offset="0%"/><stop stop-color="#1A237E" stop-opacity="0" offset="100%"/></radialGradient><radialGradient cx="85.08%" cy="13.4%" fx="85.08%" fy="13.4%" r="153.65%" id="h"><stop stop-color="#1A237E" stop-opacity=".12" offset="0%"/><stop stop-color="#1A237E" stop-opacity="0" offset="100%"/></radialGradient><radialGradient cx="41.34%" cy="0%" fx="41.34%" fy="0%" r="56.54%" id="i"><stop stop-color="#1A237E" stop-opacity=".15" offset="0%"/><stop stop-color="#1A237E" stop-opacity="0" offset="100%"/></radialGradient><path d="M76 136c33.14 0 60-26.86 60-60s-26.86-60-60-60-60 26.86-60 60 26.86 60 60 60z" id="a"/><mask id="j" x="0" y="0" width="120" height="120" fill="#fff"><use xlink:href="#a"/></mask><circle id="b" cx="76" cy="76" r="28"/><mask id="k" x="0" y="0" width="56" height="56" fill="#fff"><use xlink:href="#b"/></mask><circle id="c" cx="76" cy="76" r="20"/><mask id="l" x="0" y="0" width="40" height="40" fill="#fff"><use xlink:href="#c"/></mask></defs><g transform="translate(20 20)" fill="none" fill-rule="evenodd"><mask id="e" fill="#fff"><use xlink:href="#d"/></mask><use fill="#2879FF" xlink:href="#d"/><g transform="translate(-20 -20)" mask="url(#e)" stroke="#FFF" stroke-opacity=".2" stroke-width=".5"><path d="M0 0l192 192M192 0L0 192M123.75 0v192M68.25 0v192M192 123.75H0M192 68.25H0"/><circle cx="96" cy="96" r="39"/><path d="M0 96h192M96 0v192"/></g><circle fill="url(#f)" cx="76" cy="76" r="60"/><path d="M140 0H12C5.4 0 0 5.4 0 12v1C0 6.4 5.4 1 12 1h128c6.6 0 12 5.4 12 12v-1c0-6.6-5.4-12-12-12z" fill="#FFF" opacity=".2"/><path d="M140 151H12c-6.6 0-12-5.4-12-12v1c0 6.6 5.4 12 12 12h128c6.6 0 12-5.4 12-12v-1c0 6.6-5.4 12-12 12z" fill="#000" opacity=".1"/><path d="M49.5 67.48L25 43l26.72 45.83c-2.2-3.94-3.44-8.47-3.44-13.3 0-2.8.42-5.5 1.2-8.05z" fill="url(#g)"/><path d="M81.97 103L73 136.46 99.56 90c-3.75 6.48-10.08 11.28-17.6 13z" fill="url(#h)"/><path d="M96.1 57.43l33.42-8.93H75.86c-15.12 0-27.37 12.25-27.37 27.37 0 15.12 12.25 27.37 27.37 27.37 15.12 0 27.37-12.25 27.37-27.37 0-7.1-2.7-13.57-7.14-18.44z" fill="url(#i)"/><use stroke="#FFF" mask="url(#j)" stroke-width="4" xlink:href="#a"/><use stroke="#FFF" mask="url(#k)" stroke-width="4" xlink:href="#b"/><use stroke="#FFF" mask="url(#l)" stroke-width="4" xlink:href="#c"/><path fill="#FFF" d="M76 48h53v2H76zM100.25 90l-26.5 45.9-1.73-1L98.52 89zM51.75 90l-26.5-45.9 1.73-1L53.48 89z"/></g></svg>
